X:4003
T:Marie,La. CJF.058
T:La Marie. CJF.058
O:england
M:2/4
L:1/8
Q:160
S: C.J.Fox MS, 1829/33, Beverley,E.Yorks.
R:Misc.
A:East Yorkshire
B:Kidson Coll.Mitchell Lib.M1805
K:G
(G/B/)|.d.d.d f/g/|d(^a/b/) g(^c'/d'/)|\
bg (a/g/f/g/)|.a.a.a (G/B/)|.d.d.d (f/g/)|\
d(^a/b/) g(^c'/d'/)|b>g (f/g/a/f/)|gggh||:(d/e/)|.f.f.g.g|
.a.b.a (f/g/)|.a.a.b.b|c'/b/a/g/ f/e/d/c/|\
BBcc|ddea|g>(b a/g/a/"  D Capo"b/)|.g.g.g||


